symbols/web/houseboat/materialsymbolsoutlined/houseboat_wght200grad200fill1_40px.svg

<svg xmlns="http://www.w3.org/2000/svg" height="40" width="40"><path d="M10.875 23.25q-.875 0-1.708-.333-.834-.334-1.417-.959l-1.292-1.291 1.459-1.5 1.333 1.291q.292.334.729.48.438.145.896.145h2.25v-6.541L11.083 16l-1.291-1.667L20 6.792l10.167 7.5-1.25 1.75-2-1.5v6.541h2.208q.458 0 .896-.145.437-.146.771-.48l1.291-1.291 1.459 1.5-1.25 1.25q-.667.666-1.48 1-.812.333-1.687.333Zm-7.042 7.208v-2.166q1.5-.292 2.459-.959.958-.666 2.5-.666 1.833 0 3.02.833 1.188.833 2.563.833 1.5 0 2.687-.833 1.188-.833 2.938-.833 1.792 0 2.979.833 1.188.833 2.646.833 1.417 0 2.583-.833 1.167-.833 3-.833 1.667 0 2.521.645.854.646 2.479.98v2.166q-1.5-.208-2.666-.937-1.167-.729-2.375-.729-1.459 0-2.625.833-1.167.833-2.959.833-1.833 0-2.937-.833-1.104-.833-2.646-.833-1.542 0-2.646.833-1.104.833-2.937.833-1.792 0-2.979-.833-1.188-.833-2.605-.833-1.291 0-2.416.729t-2.584.937Zm15.125-9.375h2.125V17.75h-2.125Z"/></svg>

<svg xmlns="http://www.w3.org/2000/svg" height="40" width="40"><path d="M10.875 23.25Q10 23.25 9.167 22.917Q8.333 22.583 7.75 21.958L6.458 20.667L7.917 19.167L9.25 20.458Q9.542 20.792 9.979 20.938Q10.417 21.083 10.875 21.083H13.125V14.542L11.083 16L9.792 14.333L20 6.792L30.167 14.292L28.917 16.042L26.917 14.542V21.083H29.125Q29.583 21.083 30.021 20.938Q30.458 20.792 30.792 20.458L32.083 19.167L33.542 20.667L32.292 21.917Q31.625 22.583 30.812 22.917Q30 23.25 29.125 23.25ZM3.833 30.458V28.292Q5.333 28 6.292 27.333Q7.25 26.667 8.792 26.667Q10.625 26.667 11.812 27.5Q13 28.333 14.375 28.333Q15.875 28.333 17.062 27.5Q18.25 26.667 20 26.667Q21.792 26.667 22.979 27.5Q24.167 28.333 25.625 28.333Q27.042 28.333 28.208 27.5Q29.375 26.667 31.208 26.667Q32.875 26.667 33.729 27.312Q34.583 27.958 36.208 28.292V30.458Q34.708 30.25 33.542 29.521Q32.375 28.792 31.167 28.792Q29.708 28.792 28.542 29.625Q27.375 30.458 25.583 30.458Q23.75 30.458 22.646 29.625Q21.542 28.792 20 28.792Q18.458 28.792 17.354 29.625Q16.25 30.458 14.417 30.458Q12.625 30.458 11.438 29.625Q10.25 28.792 8.833 28.792Q7.542 28.792 6.417 29.521Q5.292 30.25 3.833 30.458ZM18.958 21.083H21.083V17.75H18.958Z"/></svg>
